icons/rail-metro-11.svg

<?xml version="1.0" encoding="utf-8"?>
<!-- Generator: Adobe Illustrator 19.2.1, SVG Export Plug-In . SVG Version: 6.00 Build 0)  -->
<!DOCTYPE svg PUBLIC "-//W3C//DTD SVG 1.1//EN" "http://www.w3.org/Graphics/SVG/1.1/DTD/svg11.dtd">
<svg version="1.1"
	 id="svg4764" inkscape:version="0.91+devel+osxmenu r12911" sodipodi:docname="rail-metro-11.svg" xmlns:cc="http://creativecommons.org/ns#" xmlns:dc="http://purl.org/dc/elements/1.1/" xmlns:inkscape="http://www.inkscape.org/namespaces/inkscape" xmlns:rdf="http://www.w3.org/1999/02/22-rdf-syntax-ns#" xmlns:sodipodi="http://sodipodi.sourceforge.net/DTD/sodipodi-0.dtd" xmlns:svg="http://www.w3.org/2000/svg"
	 xmlns="http://www.w3.org/2000/svg" xmlns:xlink="http://www.w3.org/1999/xlink" x="0px" y="0px" width="11px" height="11px"
	 viewBox="0 0 11 11" style="enable-background:new 0 0 11 11;" xml:space="preserve">
<path id="path14200" d="M3.5,0C3,0,3,0.5,3,0.5L2,5v1c0,1.0244,1,1,1,1h5c0,0,1,0,1-1V5L8,0.5C8,0.5,8,0,7.5,0H3.5z M4,1h3l0.5,3h-4
	L4,1z M3.5,5C3.7761,5,4,5.2239,4,5.5S3.7761,6,3.5,6S3,5.7761,3,5.5S3.2239,5,3.5,5z M5.25,5h0.5C5.8885,5,6,5.1115,6,5.25
	S5.8885,5.5,5.75,5.5h-0.5C5.1115,5.5,5,5.3885,5,5.25S5.1115,5,5.25,5z M7.5,5C7.7761,5,8,5.2239,8,5.5S7.7761,6,7.5,6
	S7,5.7761,7,5.5S7.2239,5,7.5,5z M3,8l-1,3h1.5l0.334-1h3.332L7.5,11H9L8,8H6.5l0.334,1H4.166L4.5,8H3z"/>
</svg>

<?xml version="1.0" encoding="UTF-8" standalone="no"?>
<!-- Generator: Adobe Illustrator 17.1.0, SVG Export Plug-In . SVG Version: 6.00 Build 0)  -->

<svg
   xmlns:dc="http://purl.org/dc/elements/1.1/"
   xmlns:cc="http://creativecommons.org/ns#"
   xmlns:rdf="http://www.w3.org/1999/02/22-rdf-syntax-ns#"
   xmlns:svg="http://www.w3.org/2000/svg"
   xmlns="http://www.w3.org/2000/svg"
   xmlns:sodipodi="http://sodipodi.sourceforge.net/DTD/sodipodi-0.dtd"
   xmlns:inkscape="http://www.inkscape.org/namespaces/inkscape"
   version="1.1"
   id="svg4764"
   x="0px"
   y="0px"
   height='11'
   width='11'
   viewBox="0 0 11 11"
   enable-background="new 0 0 11 11"
   xml:space="preserve"
   inkscape:version="0.91+devel+osxmenu r12911"
   sodipodi:docname="rail-metro-11.svg"><metadata
     id="metadata8"><rdf:RDF><cc:Work
         rdf:about=""><dc:format>image/svg+xml</dc:format><dc:type
           rdf:resource="http://purl.org/dc/dcmitype/StillImage" /><dc:title /></cc:Work></rdf:RDF></metadata><defs
     id="defs6" /><sodipodi:namedview
     pagecolor="#ffffff"
     bordercolor="#666666"
     borderopacity="1"
     objecttolerance="10"
     gridtolerance="10"
     guidetolerance="10"
     inkscape:pageopacity="0"
     inkscape:pageshadow="2"
     inkscape:window-width="985"
     inkscape:window-height="758"
     id="namedview4"
     showgrid="true"
     inkscape:snap-bbox="true"
     inkscape:bbox-paths="true"
     inkscape:bbox-nodes="true"
     inkscape:snap-bbox-edge-midpoints="true"
     inkscape:snap-bbox-midpoints="true"
     inkscape:object-paths="true"
     inkscape:snap-intersection-paths="true"
     inkscape:object-nodes="true"
     inkscape:snap-smooth-nodes="true"
     inkscape:zoom="45.254834"
     inkscape:cx="3.7691404"
     inkscape:cy="4.4649194"
     inkscape:window-x="17"
     inkscape:window-y="0"
     inkscape:window-maximized="0"
     inkscape:current-layer="svg4764"><inkscape:grid
       type="xygrid"
       id="grid3336"
       spacingx="0.5"
       spacingy="0.5"
       color="#f80002"
       opacity="0.1254902"
       empspacing="2" /></sodipodi:namedview><path
     style="opacity:1;fill:#000000;fill-opacity:1;stroke:none;stroke-width:1;stroke-linecap:round;stroke-linejoin:miter;stroke-miterlimit:4;stroke-dasharray:none;stroke-dashoffset:0;stroke-opacity:1"
     d="M 3.5 0 C 3 0 3 0.5 3 0.5 L 2 5 L 2 6 C 2 7.024394 3 7 3 7 L 8 7 C 8 7 9 7 9 6 L 9 5 L 8 0.5 C 8 0.5 8 0 7.5 0 L 3.5 0 z M 4 1 L 7 1 L 7.5 4 L 3.5 4 L 4 1 z M 3.5 5 A 0.5 0.5 0 0 1 4 5.5 A 0.5 0.5 0 0 1 3.5 6 A 0.5 0.5 0 0 1 3 5.5 A 0.5 0.5 0 0 1 3.5 5 z M 5.25 5 L 5.75 5 C 5.8885 5 6 5.1115 6 5.25 C 6 5.3885 5.8885 5.5 5.75 5.5 L 5.25 5.5 C 5.1115 5.5 5 5.3885 5 5.25 C 5 5.1115 5.1115 5 5.25 5 z M 7.5 5 A 0.5 0.5 0 0 1 8 5.5 A 0.5 0.5 0 0 1 7.5 6 A 0.5 0.5 0 0 1 7 5.5 A 0.5 0.5 0 0 1 7.5 5 z M 3 8 L 2 11 L 3.5 11 L 3.8339844 10 L 7.1660156 10 L 7.5 11 L 9 11 L 8 8 L 6.5 8 L 6.8339844 9 L 4.1660156 9 L 4.5 8 L 3 8 z "
     id="path14200" /></svg>
